X:1
T: Miss McInnes' Fancy
C:William Marshall
R:Strathspey
Q: 128
K:A
M:4/4
L:1/16
|:a2|A,A3 A3c A,A3 A3c|A,A3 A2Bc d4 d3e|fd3 d3B ec3 c3A|B3c dcBA F4 F3c|
A,A3 A3c A,A3 A3c|A,A3 A2Bc d4 d3e|fd3 d3B ec3 c3A|B3c dcBA F4 F2f2|
e3f e3c ae3 e2cd|e3f ec3 a4 e2fg|a3g f3e d3c B3A|GB3 B3c d4 d3e|
e3f e3c ae3 e2cd|e3f ec3 a4 e2fg|agfe fedc dcBA GFED|EB3 G3E A4 A2:|
